X: 0631
T: DANIEL TUCKER
B: Oliver Ditson "The Boston Collection of Instrumental Music" 1910 p.63 #1
F: http://conquest.imslp.info/files/imglnks/usimg/8/8f/IMSLP175643-PMLP309456-bostoncollection00bost_bw.pdf
M: 2/4
L: 1/16
K: D
(3ABc |\
df(ec d)fec | df(ec d2)B2 | df(ec d)fec | A2A2B2d2 |\
df(ec d)fec | df(ec d2)B2 | df(ec d)fec | dAFA D2 |]
(3ABc |\
d2d2d2d2 | d2d2d2B2 | d2d2d2d2 | A2A2B2d2 |\
d2d2d2d2 | d2d2d2B2 | d2d2d2d2 | A2A2B2d2 |
[fA][f2A2][gB] [f4A4] | [e2c2][d2B2][B2G2][d2F2] | [ec][e2c2][fd] [e4c4] | [A2F2][A2F2][B2G2][d2F2] |\
[fA][f2A2][gB] [f4A4] | [e2A2][d2F2][B2G2][d2F2] | [e2c2][f2d2] [d2F2][d2F2] | [A2F2][A2F2] [B2G2][d2F2] |]

%%sep 1 1 500
%%sep 1 1 500
